X:760
T:One too many
R:Jig
O:England
Z:Transcription:Mark Boronkay, chords:Mike Long
M:6/8
L:1/8
K:G
"Am"A2A e2e|"G"dcB "Am"A2E|"Am"ABc "G"BAG|"Am"ABc "E"e2^d|\
"Am"A2A e2e|"G"dcB "Am"A2E|"Am"ABc "G"BAG|"Am"~A3 A3:|
|:"Am"e2e a2a|"G"gfe d2A|"D"def gfe|"G"~g3 g3|\
"Am"e2e a2a|"G"gfe d2d|"Am"ABc "G"BAG|"Am"~A3 A3:|
